X:1
T:Naaman, 10.10.10.10
T:Naaman, 10.10.10.10
T:M. Costa, arranged by William Hutchins Calcott 
T:Public Domain Courtesy of the Cyber Hymnal™
C:M. Costa, arranged by William Hutchins Calcott
Z:Public Domain
Z:Courtesy of the Cyber Hymnal™
%%score 1 2
L:1/8
M:4/4
K:Ab
V:1 treble 
V:2 bass 
V:1
 [CA]4 [CE]3 [CE] | [Ec]4 [CA]2 [CA]2 | [Fd]4 [Ec]3 [=D=B] | [Ec]8 | [DB]4 [DF]3 [DG] | %5
 [CA]4 [CA]2 [Ac]2 | [ce]4 [Bd]3 [Ac] | [GB]8 | [Ec]4 [Ec]3 [Ec] | [Ec]4 [EF]2 [EF]2 | %10
 [E_G]4 [EF]3 [EF] | ([EF]4 [DB]4) | [FB]4 [F=A]3 [FB] | ([Ec]2 [Ce]2) [Fd]2 [Ec]2 | %14
 [DB]4 [DF]3 [DG] | [CA]8 |] %16
V:2
 [A,,A,]4 [A,,A,]3 [A,,A,] | [A,,A,]4 [A,,A,]2 [A,,A,]2 | [A,,A,]4 [A,,A,]3 [A,,A,] | [A,,A,]8 | %4
 [E,G,]4 [E,B,]3 [E,B,] | [F,A,]4 [F,A,]2 [F,A,]2 | [D,F,]4 [D,F,]3 [=D,F,] | [E,G,]8 | %8
 [A,,A,]4 [A,,A,]3 [A,,A,] | [F,=A,]4 [F,A,]2 [F,A,]2 | [F,=A,]4 [F,A,]3 [F,A,] | [B,,B,]8 | %12
 [D,F,]4 [D,F,]3 [D,F,] | [E,A,]4 [E,A,]2 [E,A,]2 | [E,G,]4 [E,B,]3 [E,B,] | [A,,A,]8 |] %16

